src/lib/Icons/figma.svg

<svg fill="none" height="40" viewBox="0 0 28 40" width="28" xmlns="http://www.w3.org/2000/svg"><path d="m7.33854 40c1.76811 0 3.46376-.7024 4.71406-1.9527 1.2502-1.2502 1.9526-2.9459 1.9526-4.714v-6.6667h-6.66666c-1.76811 0-3.4638.7024-4.71404 1.9526-1.25025 1.2503-1.952625 2.946-1.952625 4.7141s.702375 3.4638 1.952625 4.714c1.25024 1.2503 2.94593 1.9527 4.71404 1.9527z" fill="#0acf83"/><path d="m.671875 20c0-1.7681.702375-3.4638 1.952625-4.714 1.25024-1.2502 2.94593-1.9526 4.71404-1.9526h6.66666v13.3333h-6.66666c-1.76811 0-3.4638-.7024-4.71404-1.9526-1.25025-1.2503-1.952625-2.9459-1.952625-4.7141z" fill="#a259ff"/><path d="m.671875 6.66667c-.000001-1.76721.701665-3.46212 1.950775-4.71221 1.24912-1.250091 2.94348-1.95307937 4.71068-1.95446h6.66667v13.3333h-6.66146c-1.76811 0-3.4638-.7023-4.71404-1.9526-1.25025-1.2502-1.952625-2.94592-1.952625-4.71403z" fill="#f24e1e"/><path d="m14.0054 0h6.6666c1.7681 0 3.4638.702379 4.7141 1.95262 1.2502 1.25024 1.9526 2.94594 1.9526 4.71405s-.7024 3.46383-1.9526 4.71403c-1.2503 1.2503-2.946 1.9526-4.7141 1.9526h-6.6666z" fill="#ff7262"/><path d="m27.3387 20c0 1.7681-.7024 3.4638-1.9526 4.7141-1.2503 1.2502-2.946 1.9526-4.7141 1.9526s-3.4638-.7024-4.714-1.9526c-1.2502-1.2503-1.9526-2.946-1.9526-4.7141s.7024-3.4638 1.9526-4.714 2.9459-1.9526 4.714-1.9526 3.4638.7024 4.7141 1.9526c1.2502 1.2502 1.9526 2.9459 1.9526 4.714z" fill="#1abcfe"/></svg>

<svg width="28" height="40" viewBox="0 0 28 40" fill="none" xmlns="http://www.w3.org/2000/svg">
<path d="M7.33854 40C9.10665 40 10.8023 39.2976 12.0526 38.0473C13.3028 36.7971 14.0052 35.1014 14.0052 33.3333V26.6666H7.33854C5.57043 26.6666 3.87474 27.369 2.6245 28.6192C1.37425 29.8695 0.671875 31.5652 0.671875 33.3333C0.671875 35.1014 1.37425 36.7971 2.6245 38.0473C3.87474 39.2976 5.57043 40 7.33854 40V40Z" fill="#0ACF83"/>
<path d="M0.671875 20C0.671875 18.2319 1.37425 16.5362 2.6245 15.286C3.87474 14.0358 5.57043 13.3334 7.33854 13.3334H14.0052V26.6667H7.33854C5.57043 26.6667 3.87474 25.9643 2.6245 24.7141C1.37425 23.4638 0.671875 21.7682 0.671875 20V20Z" fill="#A259FF"/>
<path d="M0.671875 6.66667C0.671874 4.89946 1.37354 3.20455 2.62265 1.95446C3.87177 0.704369 5.56613 0.00138063 7.33333 0L14 0V13.3333H7.33854C5.57043 13.3333 3.87474 12.631 2.6245 11.3807C1.37425 10.1305 0.671875 8.43478 0.671875 6.66667V6.66667Z" fill="#F24E1E"/>
<path d="M14.0054 0H20.672C22.4401 0 24.1358 0.702379 25.3861 1.95262C26.6363 3.20286 27.3387 4.89856 27.3387 6.66667C27.3387 8.43478 26.6363 10.1305 25.3861 11.3807C24.1358 12.631 22.4401 13.3333 20.672 13.3333H14.0054V0Z" fill="#FF7262"/>
<path d="M27.3387 20C27.3387 21.7681 26.6363 23.4638 25.3861 24.7141C24.1358 25.9643 22.4401 26.6667 20.672 26.6667C18.9039 26.6667 17.2082 25.9643 15.958 24.7141C14.7078 23.4638 14.0054 21.7681 14.0054 20C14.0054 18.2319 14.7078 16.5362 15.958 15.286C17.2082 14.0358 18.9039 13.3334 20.672 13.3334C22.4401 13.3334 24.1358 14.0358 25.3861 15.286C26.6363 16.5362 27.3387 18.2319 27.3387 20V20Z" fill="#1ABCFE"/>
</svg>
